build/img/cta/vectors/puddle.svg

<svg width="816" height="461" viewBox="0 0 816 461" fill="none" xmlns="http://www.w3.org/2000/svg">
<path d="M1017.47 41.5705C951.647 -12.9587 842.281 -13.9243 781.678 39.3701C760.787 57.7984 745.228 81.5062 720.916 96.0583C628.69 151.261 486.925 43.4788 392.041 95.0129C370.909 106.501 355.092 124.934 333.103 135.159C261.432 168.553 172.084 101.195 91.5911 112.647C33.8224 120.802 -8.41829 175.603 1.5918 229.096C235.89 322.569 477.557 397.698 723.872 453.635C749.056 459.354 776.812 464.643 799.077 454.002C815.688 446.096 825.979 430.727 835.258 415.868C904.097 305.793 977.456 164.049 1017.47 41.5705Z" fill="#FAF8EB"/>
</svg>

<svg width="816" height="461" fill="none" xmlns="http://www.w3.org/2000/svg"><path d="M1017.47 41.57c-65.823-54.529-175.189-55.494-235.792-2.2-20.891 18.428-36.45 42.136-60.762 56.688-92.226 55.203-233.991-52.58-328.875-1.045-21.132 11.488-36.949 29.921-58.938 40.146-71.671 33.394-161.019-33.964-241.512-22.512-57.769 8.155-100.01 62.956-90 116.449 234.299 93.473 475.966 168.602 722.281 224.539 25.184 5.719 52.94 11.008 75.205.367 16.611-7.906 26.902-23.275 36.181-38.134C904.097 305.793 977.456 164.049 1017.47 41.57Z" fill="#FAF8EB"/></svg>
